src/img/svg/tent.svg

<svg width="35" height="33" viewBox="0 0 35 33" fill="none" xmlns="http://www.w3.org/2000/svg">
<path d="M2.21642 28.7499L4.44976 29.6833V14.6333L0.399758 24.3999C-0.283575 26.0999 0.533091 28.0499 2.21642 28.7499ZM34.7164 22.5833L26.4498 2.63325C25.9331 1.38325 24.7164 0.616585 23.4331 0.583252C22.9998 0.583252 22.5498 0.649919 22.1164 0.833252L9.83309 5.91658C8.58309 6.43325 7.81642 7.63325 7.78309 8.91658C7.76642 9.36658 7.84976 9.81659 8.03309 10.2499L16.2998 30.1999C16.8164 31.4666 18.0498 32.2333 19.3498 32.2499C19.7831 32.2499 20.2164 32.1666 20.6331 31.9999L32.8998 26.9166C34.5998 26.2166 35.4164 24.2666 34.7164 22.5833ZM11.1331 10.5833C10.2164 10.5833 9.46642 9.83325 9.46642 8.91658C9.46642 7.99992 10.2164 7.24992 11.1331 7.24992C12.0498 7.24992 12.7998 7.99992 12.7998 8.91658C12.7998 9.83325 12.0498 10.5833 11.1331 10.5833ZM7.79976 28.9166C7.79976 30.7499 9.29976 32.2499 11.1331 32.2499H13.5498L7.79976 18.3499V28.9166Z" fill="white"/>
</svg>

<svg width="35" height="33" fill="none" xmlns="http://www.w3.org/2000/svg"><path d="M2.216 28.75l2.234.933v-15.05L.4 24.4c-.684 1.7.133 3.65 1.816 4.35zm32.5-6.167L26.45 2.633c-.517-1.25-1.734-2.016-3.017-2.05-.433 0-.883.067-1.317.25L9.833 5.917a3.331 3.331 0 0 0-2.05 3c-.017.45.067.9.25 1.333L16.3 30.2c.516 1.267 1.75 2.033 3.05 2.05.433 0 .866-.083 1.283-.25L32.9 26.917c1.7-.7 2.516-2.65 1.816-4.334zm-23.583-12c-.917 0-1.667-.75-1.667-1.666 0-.917.75-1.667 1.667-1.667S12.8 8 12.8 8.917c0 .916-.75 1.666-1.667 1.666zM7.8 28.917c0 1.833 1.5 3.333 3.333 3.333h2.417L7.8 18.35v10.567z" fill="#fff"/></svg>
